assets/img/svg/iconbox.svg

<svg width="39" height="36" viewBox="0 0 39 36" fill="none" xmlns="http://www.w3.org/2000/svg">
<g filter="url(#filter0_d_876_8842)">
<path d="M16.0147 18.7466L9.69531 17.2477V22.8757L18.4161 24.9443V16.4766L16.1944 18.6957C16.1476 18.7429 16.0798 18.7616 16.0147 18.7466Z" fill="#1C62AE"/>
<path d="M18.2282 16.1215L9.5624 14.0663L7.33203 16.2937L15.9978 18.3488L18.2282 16.1215Z" fill="#1C62AE"/>
<path d="M21.0201 17.8836L29.6676 15.8321L27.6592 14.0645L19.0117 16.1159L21.0201 17.8836Z" fill="#1C62AE"/>
<path d="M20.9682 18.284C20.9221 18.284 20.8768 18.2675 20.8417 18.2361L18.7988 16.4385V24.9444L27.5197 22.8758V16.7357L21.0124 18.2788C20.9978 18.2825 20.9828 18.284 20.9682 18.284Z" fill="#1C62AE"/>
<path d="M16.9643 12.0547L10.2852 13.8441L18.6066 15.8176L26.7838 13.8778L16.9643 12.0547Z" fill="#1C62AE"/>
</g>
<defs>
<filter id="filter0_d_876_8842" x="-5" y="-5" width="50" height="50" filterUnits="userSpaceOnUse" color-interpolation-filters="sRGB">
<feFlood flood-opacity="0" result="BackgroundImageFix"/>
<feColorMatrix in="SourceAlpha" type="matrix" values="0 0 0 0 0 0 0 0 0 0 0 0 0 0 0 0 0 0 127 0" result="hardAlpha"/>
<feOffset dx="2" dy="2"/>
<feGaussianBlur stdDeviation="3.5"/>
<feComposite in2="hardAlpha" operator="out"/>
<feColorMatrix type="matrix" values="0 0 0 0 0.555 0 0 0 0 0.555 0 0 0 0 0.555 0 0 0 0.18 0"/>
<feBlend mode="normal" in2="BackgroundImageFix" result="effect1_dropShadow_876_8842"/>
<feBlend mode="normal" in="SourceGraphic" in2="effect1_dropShadow_876_8842" result="shape"/>
</filter>
</defs>
</svg>

<svg width="39" height="36" fill="none" xmlns="http://www.w3.org/2000/svg"><g filter="url(#filter0_d_876_8842)" fill="#1C62AE"><path d="M16.015 18.747l-6.32-1.5v5.629l8.721 2.068v-8.467l-2.222 2.219a.192.192 0 01-.18.05z"/><path d="M18.228 16.122l-8.666-2.056-2.23 2.228 8.666 2.055 2.23-2.227zM21.02 17.884l8.648-2.052-2.009-1.768-8.647 2.052 2.008 1.768z"/><path d="M20.968 18.284a.19.19 0 01-.126-.048l-2.043-1.797v8.505l8.72-2.068v-6.14l-6.507 1.543a.18.18 0 01-.044.005zM16.964 12.055l-6.679 1.79 8.322 1.973 8.177-1.94-9.82-1.823z"/></g><defs><filter id="filter0_d_876_8842" x="-5" y="-5" width="50" height="50" filterUnits="userSpaceOnUse" color-interpolation-filters="sRGB"><feFlood flood-opacity="0" result="BackgroundImageFix"/><feColorMatrix in="SourceAlpha" values="0 0 0 0 0 0 0 0 0 0 0 0 0 0 0 0 0 0 127 0" result="hardAlpha"/><feOffset dx="2" dy="2"/><feGaussianBlur stdDeviation="3.5"/><feComposite in2="hardAlpha" operator="out"/><feColorMatrix values="0 0 0 0 0.555 0 0 0 0 0.555 0 0 0 0 0.555 0 0 0 0.18 0"/><feBlend in2="BackgroundImageFix" result="effect1_dropShadow_876_8842"/><feBlend in="SourceGraphic" in2="effect1_dropShadow_876_8842" result="shape"/></filter></defs></svg>
